X: 1
T: the Old Set Tune
O: Australia
Q: 3/8=120
R: jig
Z: 2014 John Chambers <jc:trillian.mit.edu>
N: In a set for Cheltenham Flier
N: The rhythm between the strains isn't quite right.
M: 6/8
L: 1/8
K: D
A |\
"D"def agf | "Em"g2B B2B | "A"cde ABc | "D"def a2A |\
   def agf | "Em"g2B B2B | "A"cde ABc | "D"d3- ddB :|
|:\
"D"ABA d2c | "Em"B2B e2e | "A"cde ABc | "D"def afd |\
   A2A d2c | "Em"B2B e2e | "A"cde ABc | "D"d3- d2 :|
